X:1
T:Freedom on the Wallaby
M:4/4
L:1/4
K:D
 a| a a- g3/2 g/2| f f e3/2 e/2| d d e d| c/2 B/2- B2 g| g g f3/2 f/2|\
 e3/2 e/2 d d| c e B c| c/2 c/2- c2 a| a a g3/2 g/2| f f e3/2 e/2|\
 d3/2 d/2 e f| a/2 g/2- g2 g| g3/2 g/2 g f| e/2 e3/2 a g| f3/2 f/2f/2 e3/2|\
 e/2 d/2- d2||

